X:1
T: The Widow Brady
C:
R:Jig
Q:180
K:D
M:6/8
L:1/16
|:d2|A2F2D2 D2F2A2|A2F2A2 B4d2|A2F2D2 D2F2A2|f2d2B2 B4d2|
A2F2D2 D2F2A2|A2F2A2 B4d2|d2e2f2 g2f2e2|f2d2d2 d4d2|
a2f2d2 f2e2d2|e2c2A2 A2c2e2|f2e2d2 d2c2d2|e2c2A2 A4fg|
a2b2a2 g2f2e2|f2e2d2 c2B2A2|B2c2d2 e2f2g2|1f2d2d2 d4d2:|2f2d2d2 d4||
